X:1
T:Mectons a fin
T:Mectons a fin
T:Gerardus
C:Gerardus
%%score [ 1 [ 2 3 ] 4 ]
L:1/8
Q:1/4=90
M:2/2
K:F
V:1 treble nm="Superius" snm="S"
V:2 treble-8 nm="Tenor 1" snm="T 1"
V:3 treble-8 nm="Tenor 2" snm="T 2"
V:4 bass nm="Bassus" snm="B"
V:1
 F4 F2 F2 | E3 F G2 A2 | F2 B3 AGF | E2 F4 E2 | F4 z4 | A4 A2 A2 | G3 A B2 c2 | d2 c4 B2 | c8 | %9
w: Met- tons à|fin _ _ tous|re- gretz _ _ _|_ et sou-|cys,|tous des- plai-|sirs de tris- tes-|* se far-|cys,|
w: |||||||||
 z2 A2 G2 A2 |S B2 z A G2 A2 | B2 A2 G2 B2- | BA A4 G2 | A4 B4 | A8 | z4 z2 c2 | c3 B A2 G2 | %17
w: pre- nant au|cueur, pre- nant au|cueur tout plai- sir|* * et sou-||las,|pour|e- vi- ter de|
w: ||||||||
 F2 E2 D2 D2 | C8 | z2 E2 F2 G2- | GF F4 E2 |: F8 | z8 | z4 z2 C2 | F2 F2 G2 G2 | A2 GF E2 A2 | %26
w: dou- leur les fors|lacqs,|les- fors- *||lacqs,||et|que par eulx n'ay-|ons _ _ _ le|
w: ||||2.sy,|||||
O G2 F4 E2 :| F2 A2 G2 A2!D.S.! ||O"^b" F8 |] %29
w: cueur _ tran-|sy, pre- nant au|sy.|
w: |||
V:2
 c4 d2 d2 | G2 c3 BAG | AF f3 e d2 | c2 B2 c4 | A2 c2 cB AG | F2 f2 f2 f2 | d2 d2 g2 g2 | %7
w: Met- tons à|fin tous _ _ _|_ _ re- * *|* * gretz|et sou- cys, _ _ _|_ tous des- plai-|sirs de tris- tes|
w: |||||||
 f2 f2 gfed | e2 f4 e2 | f2 f2 d2 f2 | f2 z f d2 f2 | f2 f2 d4 | B2 c2 d4 | e2 f4 e2 | f4 z2 c2 | %15
w: se far * * * *||cys, pre- nant au|cueur,- pre- nant au|cueur tout plai-|sir et sou-||las, pour|
w: ||||||||
 c3 B A2 G2 | F2 E2 F2 C2 | c3 B A2 B2 | G4 A2 c2- | cd e2 d2 c2- | c2 B2 c4 |: A4 z2 F2 | %22
w: e- * * vi-|ter de dou- leur|les _ _ fors||||lacqs, et|
w: ||||||2.sy,- *|
 B2 B2 c2 c2 | d2 cB A2 G2 | F2 B4 AG | F4 G2 c2 | d4 c4 :| f2 f2 d2 f2 || A8 |] %29
w: que par eulx n'ay-|ons le _ cueur tran-||||sy, pre- nant au|sy.|
w: |||||||
V:3
 F4 A2 B2 | c2 BA G2 c2 | c2 d3 c BA | G2 F2 G4 | F4 z4 | c4 c2 c2 | B3 c d2 e2 | fe dc d2 d2 | %8
w: Met- tons à|fin tous _ _ re-|gretz et _ _ _|_ _ sou-|cys,|tous des- plai-|sirs de tris- tes-|* * * * se far-|
w: ||||||||
 c2 BA G4 | z2 d2 B2 c2 | d2 z d B2 c2 | d2 c2 B3 c | de f4 ed | c2 d4 cB | c2 c2 c3 B | %15
w: * * * cys,|pre- nant au|cueur, pre- nant au|cueur tout plai _|_ _ sir et _|_ sou- * *|las, pour e- vi-|
w: |||||||
 A2 G2 F2 E2 | F2 C2 c3 B | A2 G3 F F2- | F2 E2 F2 F2 | c3 B A2 G2 | A2 F2 G2 G2 |: F2 C2 F2 F2 | %22
w: ter de- * *|dou- leur les _|_ fors _ _|_ _ lacqs, pour|e- vi- ter de|dou- leur les fors|lacqs, et que par|
w: ||||||2.sy, * * *|
 G2 G2 A2 A2 | D2 d2 c2 c2 | A2 d4 c2- | c2 B2 c4 | B2 A2 G4 :| A2 d2 B2 c2 || F8 |] %29
w: eulx n'ay- ons le|cueur tran- sy, et|que par eulx|* le cueur|tran- * *|sy, pre- nant au|sy.|
w: |||||||
V:4
 F,4 D,2 D,2 | C,3 D, E,2 F,2- | F,2 B,,2 B,,4 | C,2 D,2 C,4 | F,,4 z4 | F,4 F,2 F,2 | %6
w: Met- tons à|fin _ _ tous|* re- gretz|et * sou-|cys,|tous des- plai-|
w: ||||||
 G,2 G,2 G,2 F,E, | D,2 A,2 G,2 G,2 | C,8 | z2 D,2 G,2 F,2 | B,,2 z D, G,2 F,2 | B,,2 F,2 G,4- | %12
w: sirs de tris- tes- *|* * * far-|cys,|pre- nant au|cueur, pre- nant au|cueur tout plai-|
w: ||||||
 G,2 F,2 B,2 B,2 | A,2 G,F, G,4 | F,8 | z2 C2 C3 B, | A,2 G,2 F,2 E,2 | F,2 C,2 D,2 B,,2 | %18
w: * sir et sou-||las,|pour e- vi-|ter de dou- leur|les fors _ _|
w: ||||||
 C,4 F,,3 G,, | A,,B,, B,,2 D,2 E,2 | F,2 D,2 C,4 |: F,,8 | z4 z2 F,,2 | B,,2 B,,2 C,2 C,2 | %24
w: _ _ _|||lacqs,|et|que par eulx n'ay-|
w: |||2.sy,|||
 D,2 C,B,, E,4 | D,4 C,2 A,,2 | B,,4 C,4 :| F,2 D,2 G,2 F,2 || F,,8 |] %29
w: ons le _ cueur||* tran-|sy, pre- nant au|sy.|
w: |||||

